X:21
T:Beggar Girl. Le4.021, The
B:L.Leadley MS#4 c1850
Z:Village Music Project, 2016 Steve Mansfield
M:6/8
L:1/8
Q:3/8=90
K:G
d>cB d>cB | A>GA B3 | d>cB d>cB | A>GA G2d |
d>cB d>cB | A>GA B>cd | d>cB d>cB | A>GA G2z ||
|: DGB DAc | DAG {B}AGA | DG=F E2 c/>c/ | BAG Hd2 z |
d>cB d>cB | A>GA B>cd | d>cB e>fHg | B>cA G2z |]

